Numix-Light/16/status/indicator-keyboard-Ku-6.svg

<?xml version="1.0" encoding="UTF-8" standalone="no"?>
<svg
   xmlns:dc="http://purl.org/dc/elements/1.1/"
   xmlns:cc="http://creativecommons.org/ns#"
   xmlns:rdf="http://www.w3.org/1999/02/22-rdf-syntax-ns#"
   xmlns:svg="http://www.w3.org/2000/svg"
   xmlns="http://www.w3.org/2000/svg"
   xmlns:sodipodi="http://sodipodi.sourceforge.net/DTD/sodipodi-0.dtd"
   xmlns:inkscape="http://www.inkscape.org/namespaces/inkscape"
   viewBox="0 0 16 16"
   id="svg2"
   version="1.1"
   inkscape:version="0.91 r13725"
   sodipodi:docname="indicator-keyboard-Ku-6.svg">
  <metadata
     id="metadata14">
    <rdf:RDF>
      <cc:Work
         rdf:about="">
        <dc:format>image/svg+xml</dc:format>
        <dc:type
           rdf:resource="http://purl.org/dc/dcmitype/StillImage" />
      </cc:Work>
    </rdf:RDF>
  </metadata>
  <defs
     id="defs12" />
  <sodipodi:namedview
     pagecolor="#ffffff"
     bordercolor="#666666"
     borderopacity="1"
     objecttolerance="10"
     gridtolerance="10"
     guidetolerance="10"
     inkscape:pageopacity="0"
     inkscape:pageshadow="2"
     inkscape:window-width="640"
     inkscape:window-height="480"
     id="namedview10"
     showgrid="false"
     inkscape:zoom="14.75"
     inkscape:cx="8"
     inkscape:cy="8"
     inkscape:window-x="65"
     inkscape:window-y="24"
     inkscape:window-maximized="0"
     inkscape:current-layer="svg2" />
  <path
     style="fill:#353535;fill-opacity:1"
     d="M 1.5996094 0 C 0.71320937 2.9605947e-16 0 0.71320937 0 1.5996094 L 0 14.400391 C 2.9605947e-16 15.286791 0.71320937 16 1.5996094 16 L 14.400391 16 C 15.286791 16 16 15.286791 16 14.400391 L 16 1.5996094 C 16 0.71320937 15.286791 0 14.400391 0 L 1.5996094 0 z M 1.6757812 4.859375 L 2.2871094 4.859375 L 2.2871094 7.765625 C 2.5151094 7.561625 2.7669687 7.3284531 3.0429688 7.0644531 C 3.3249687 6.7944531 3.6010938 6.5239062 3.8710938 6.2539062 C 4.1470937 5.9839063 4.4045313 5.7264687 4.6445312 5.4804688 C 4.8845313 5.2344688 5.0767031 5.027375 5.2207031 4.859375 L 5.9589844 4.859375 C 5.7849844 5.045375 5.574125 5.2673906 5.328125 5.5253906 C 5.082125 5.7773906 4.822875 6.0385937 4.546875 6.3085938 C 4.270875 6.5785938 3.99475 6.845375 3.71875 7.109375 C 3.44875 7.367375 3.2042812 7.5949688 2.9882812 7.7929688 C 3.1622812 7.9009687 3.348875 8.0352656 3.546875 8.1972656 C 3.750875 8.3532656 3.9542031 8.5287031 4.1582031 8.7207031 C 4.3682031 8.9067031 4.5734844 9.1044531 4.7714844 9.3144531 C 4.9754844 9.5184531 5.1638906 9.7255469 5.3378906 9.9355469 C 5.5178906 10.145547 5.6764531 10.348875 5.8144531 10.546875 C 5.9584531 10.744875 6.0760156 10.927703 6.1660156 11.095703 L 5.4824219 11.095703 C 5.2784219 10.783703 5.0470625 10.475922 4.7890625 10.169922 C 4.5370625 9.8639217 4.2702813 9.5746875 3.9882812 9.3046875 C 3.7062813 9.0346875 3.4170469 8.7884062 3.1230469 8.5664062 C 2.8350469 8.3444063 2.5571094 8.1597656 2.2871094 8.0097656 L 2.2871094 11.095703 L 1.6757812 11.095703 L 1.6757812 4.859375 z M 6.9804688 6.4433594 L 7.5664062 6.4433594 L 7.5664062 8.8632812 C 7.5664062 9.1932813 7.5906719 9.4731719 7.6386719 9.7011719 C 7.6866719 9.9291721 7.7650469 10.115766 7.8730469 10.259766 C 7.9810469 10.397766 8.1191094 10.498453 8.2871094 10.564453 C 8.4611094 10.624453 8.6700156 10.654297 8.9160156 10.654297 C 9.1920156 10.654297 9.4327187 10.639375 9.6367188 10.609375 C 9.8407187 10.579375 9.9694376 10.553297 10.023438 10.529297 L 10.023438 6.4433594 L 10.609375 6.4433594 L 10.609375 10.933594 C 10.435375 10.981594 10.20025 11.035703 9.90625 11.095703 C 9.61225 11.155703 9.2521719 11.185547 8.8261719 11.185547 C 8.4781719 11.185547 8.187125 11.135203 7.953125 11.033203 C 7.719125 10.931203 7.5307188 10.787562 7.3867188 10.601562 C 7.2427188 10.415563 7.1382656 10.189781 7.0722656 9.9257812 C 7.0122656 9.6617813 6.9804687 9.3707344 6.9804688 9.0527344 L 6.9804688 6.4433594 z M 14.056641 8.8242188 L 14.080078 9.1464844 C 13.842178 9.1620844 13.620769 9.1993125 13.417969 9.2578125 C 13.219069 9.3124125 13.042719 9.4005844 12.886719 9.5214844 C 12.730719 9.6384843 12.599441 9.7893625 12.494141 9.9765625 C 12.388841 10.163763 12.316344 10.394969 12.277344 10.667969 C 12.382644 10.613369 12.510003 10.566344 12.658203 10.527344 C 12.806403 10.484444 12.963159 10.462891 13.130859 10.462891 C 13.349259 10.462891 13.5354 10.498159 13.6875 10.568359 C 13.8396 10.634659 13.963041 10.722838 14.056641 10.835938 C 14.150241 10.949038 14.216866 11.080316 14.259766 11.228516 C 14.302666 11.376716 14.324219 11.533466 14.324219 11.697266 C 14.324219 11.849366 14.300706 12.000244 14.253906 12.152344 C 14.207106 12.304444 14.134603 12.443559 14.033203 12.568359 C 13.935703 12.689259 13.810303 12.789187 13.658203 12.867188 C 13.510003 12.945188 13.3317 12.984375 13.125 12.984375 C 12.6999 12.984375 12.376597 12.835463 12.154297 12.539062 C 11.935897 12.238762 11.826172 11.821409 11.826172 11.287109 C 11.826172 10.495409 12.016231 9.8958281 12.394531 9.4863281 C 12.776731 9.0768281 13.331241 8.8554188 14.056641 8.8242188 z M 13.095703 10.794922 C 12.916303 10.794922 12.759547 10.816475 12.623047 10.859375 C 12.490447 10.898375 12.365047 10.9454 12.248047 11 C 12.240247 11.0663 12.236328 11.119203 12.236328 11.158203 L 12.236328 11.292969 C 12.236328 11.476269 12.248084 11.650653 12.271484 11.814453 C 12.298784 11.978253 12.345809 12.121294 12.412109 12.246094 C 12.482309 12.370894 12.5744 12.470822 12.6875 12.544922 C 12.8006 12.615122 12.943641 12.650391 13.119141 12.650391 C 13.263441 12.650391 13.386881 12.624919 13.488281 12.574219 C 13.589681 12.519619 13.671975 12.449081 13.734375 12.363281 C 13.796775 12.277481 13.841841 12.177553 13.869141 12.064453 C 13.900341 11.951353 13.916016 11.833784 13.916016 11.708984 C 13.916016 11.396984 13.845478 11.165778 13.705078 11.017578 C 13.568578 10.869378 13.364803 10.794922 13.095703 10.794922 z "
     id="path4" />
</svg>

<svg xmlns="http://www.w3.org/2000/svg" viewBox="0 0 16 16">
 <path d="m 1.6 0 c -0.886 0 -1.6 0.713 -1.6 1.6 l 0 12.801 c 0 0.886 0.713 1.6 1.6 1.6 l 12.801 0 c 0.886 0 1.6 -0.713 1.6 -1.6 l 0 -12.801 c 0 -0.886 -0.713 -1.6 -1.6 -1.6 l -12.801 0 z m 0.076 4.859 l 0.611 0 l 0 2.906 c 0.228 -0.204 0.48 -0.437 0.756 -0.701 c 0.282 -0.27 0.558 -0.541 0.828 -0.811 c 0.276 -0.27 0.533 -0.527 0.773 -0.773 c 0.24 -0.246 0.432 -0.453 0.576 -0.621 l 0.738 0 c -0.174 0.186 -0.385 0.408 -0.631 0.666 c -0.246 0.252 -0.505 0.513 -0.781 0.783 c -0.276 0.27 -0.552 0.537 -0.828 0.801 c -0.27 0.258 -0.514 0.486 -0.73 0.684 c 0.174 0.108 0.361 0.242 0.559 0.404 c 0.204 0.156 0.407 0.331 0.611 0.523 c 0.21 0.186 0.415 0.384 0.613 0.594 c 0.204 0.204 0.392 0.411 0.566 0.621 c 0.18 0.21 0.339 0.413 0.477 0.611 c 0.144 0.198 0.262 0.381 0.352 0.549 l -0.684 0 c -0.204 -0.312 -0.435 -0.62 -0.693 -0.926 c -0.252 -0.306 -0.519 -0.595 -0.801 -0.865 c -0.282 -0.27 -0.571 -0.516 -0.865 -0.738 c -0.288 -0.222 -0.566 -0.407 -0.836 -0.557 l 0 3.086 l -0.611 0 l 0 -6.236 z m 5.305 1.584 l 0.586 0 l 0 2.42 c 0 0.33 0.024 0.61 0.072 0.838 c 0.048 0.228 0.126 0.415 0.234 0.559 c 0.108 0.138 0.246 0.239 0.414 0.305 c 0.174 0.06 0.383 0.09 0.629 0.09 c 0.276 0 0.517 -0.015 0.721 -0.045 c 0.204 -0.03 0.333 -0.056 0.387 -0.08 l 0 -4.086 l 0.586 0 l 0 4.49 c -0.174 0.048 -0.409 0.102 -0.703 0.162 c -0.294 0.06 -0.654 0.09 -1.08 0.09 c -0.348 0 -0.639 -0.05 -0.873 -0.152 c -0.234 -0.102 -0.422 -0.246 -0.566 -0.432 c -0.144 -0.186 -0.248 -0.412 -0.314 -0.676 c -0.06 -0.264 -0.092 -0.555 -0.092 -0.873 l 0 -2.609 z m 7.08 2.381 l 0.023 0.322 c -0.238 0.016 -0.459 0.053 -0.662 0.111 c -0.199 0.055 -0.375 0.143 -0.531 0.264 c -0.156 0.117 -0.287 0.268 -0.393 0.455 c -0.105 0.187 -0.178 0.418 -0.217 0.691 c 0.105 -0.055 0.233 -0.102 0.381 -0.141 c 0.148 -0.043 0.305 -0.064 0.473 -0.064 c 0.218 0 0.405 0.035 0.557 0.105 c 0.152 0.066 0.276 0.154 0.369 0.268 c 0.094 0.113 0.16 0.244 0.203 0.393 c 0.043 0.148 0.064 0.305 0.064 0.469 c 0 0.152 -0.024 0.303 -0.07 0.455 c -0.047 0.152 -0.119 0.291 -0.221 0.416 c -0.098 0.121 -0.223 0.221 -0.375 0.299 c -0.148 0.078 -0.327 0.117 -0.533 0.117 c -0.425 0 -0.748 -0.149 -0.971 -0.445 c -0.218 -0.3 -0.328 -0.718 -0.328 -1.252 c 0 -0.792 0.19 -1.391 0.568 -1.801 c 0.382 -0.409 0.937 -0.631 1.662 -0.662 z m -0.961 1.971 c -0.179 0 -0.336 0.022 -0.473 0.064 c -0.133 0.039 -0.258 0.086 -0.375 0.141 c -0.008 0.066 -0.012 0.119 -0.012 0.158 l 0 0.135 c 0 0.183 0.012 0.358 0.035 0.521 c 0.027 0.164 0.074 0.307 0.141 0.432 c 0.07 0.125 0.162 0.225 0.275 0.299 c 0.113 0.07 0.256 0.105 0.432 0.105 c 0.144 0 0.268 -0.025 0.369 -0.076 c 0.101 -0.055 0.184 -0.125 0.246 -0.211 c 0.062 -0.086 0.107 -0.186 0.135 -0.299 c 0.031 -0.113 0.047 -0.231 0.047 -0.355 c 0 -0.312 -0.071 -0.543 -0.211 -0.691 c -0.136 -0.148 -0.34 -0.223 -0.609 -0.223 z" style="fill:#353535;fill-opacity:1"/>
</svg>
